;FLAVOR:UltiGCode
;TIME:9427
;MATERIAL:15203
;MATERIAL2:0
;NOZZLE_DIAMETER:0.4
;Generated with Cura_SteamEngine 2.3.1

;LAYER_COUNT:113
;LAYER:0
M107
G10
G0 F4909.1 X37.603 Y74.163 Z.27
;TYPE:SKIRT
G11
G1 F1800 X38.071 Y73.976 E0.04763
G1 X38.562 Y73.866 E0.09518
G1 X39.01 Y73.834 E0.13762
G1 X84.006 Y73.835 E4.38974
G1 X84.195 Y73.841 E4.40761
G1 X87.572 Y74.042 E4.7273
G1 X91.72 Y74.13 E5.11938
G1 X134.035 Y74.089 E9.11815
G1 X139.169 Y73.829 E9.60393
G1 X139.331 Y73.825 E9.61924
G1 X183.992 Y73.835 E13.83971
G1 X184.494 Y73.875 E13.8873
G1 X184.983 Y73.994 E13.93486
G1 X185.447 Y74.189 E13.98242
G1 X185.875 Y74.455 E14.03004
G1 X186.256 Y74.785 E14.07767
G1 X186.579 Y75.171 E14.12524
G1 X186.837 Y75.603 E14.17279
G1 X187.024 Y76.071 E14.22041
G1 X187.134 Y76.562 E14.26796
G1 X187.166 Y77.01 E14.31041
G1 X187.166 Y145.991 E20.82911
G1 X187.126 Y146.493 E20.8767
G1 X187.007 Y146.982 E20.92426
G1 X186.813 Y147.447 E20.97187
G1 X186.547 Y147.875 E21.01949
G1 X186.217 Y148.255 E21.06705
G1 X185.831 Y148.578 E21.11462
G1 X185.399 Y148.837 E21.16222
G1 X184.931 Y149.024 E21.20984
G1 X184.44 Y149.134 E21.25739
G1 X183.992 Y149.166 E21.29984
G1 X139.708 Y149.175 E25.48467
G1 X139.573 Y149.172 E25.49743
G1 X132.673 Y148.881 E26.15006
G1 X91.765 Y148.871 E30.01587
G1 X86.191 Y149.029 E30.54282
G1 X84.197 Y149.159 E30.73166
G1 X83.99 Y149.166 E30.75123
G1 X39.009 Y149.165 E35.00193
G1 X38.507 Y149.125 E35.04952
G1 X38.018 Y149.006 E35.09708
G1 X37.553 Y148.812 E35.1447
G1 X37.125 Y148.546 E35.19232
G1 X36.745 Y148.216 E35.23988
G1 X36.421 Y147.83 E35.2875
G1 X36.163 Y147.398 E35.33505
G1 X35.976 Y146.93 E35.38268
G1 X35.866 Y146.439 E35.43023
G1 X35.835 Y146.067 E35.4655
G1 X35.668 Y139.168 E36.11765
G1 X35.485 Y136.436 E36.3764
G1 X35.483 Y136.049 E36.41297
G1 X35.737 Y131.437 E36.84947
G1 X35.825 Y127.293 E37.24117
G1 X35.835 Y77.008 E41.9931
G1 X35.875 Y76.506 E42.04069
G1 X35.994 Y76.017 E42.08825
G1 X36.189 Y75.553 E42.13581
G1 X36.454 Y75.125 E42.18338
G1 X36.785 Y74.745 E42.231
G1 X37.171 Y74.421 E42.27863
G1 X37.603 Y74.163 E42.32618
G10
G0 F4909.1 X38.365 Y87.071
G0 X38.37 Y87.15
G0 X41.128 Y133.784
G0 X41.132 Y133.864
G0 X41.171 Y134.5
G0 X41.027 Y134.5
;TYPE:SUPPORT
G11
G1 F1800 X81.973 Y134.5 E46.19557
G1 X82.15 Y134.323 E46.21923
G1 X82.15 Y144.15 E47.14788
G1 X40.85 Y144.15 E51.05073
G1 X40.85 Y134.323 E51.97938
G1 X41.027 Y134.5 E52.00304
G10
G0 F4909.1 X40.989 Y135.314
G11
G1 F1800 X82.009 Y135.314 E55.87943
G10
G0 F4909.1 X81.655 Y134.64
G11
G1 F1800 X81.655 Y144.01 E56.76489
G10
G0 F4909.1 X82.009 Y142.313
G11
G1 F1800 X40.989 Y142.313 E60.64128
G10
G0 F4909.1 X41.994 Y144.01
G11
G1 F1800 X41.994 Y134.64 E61.52675
G10
G0 F4909.1 X44.327 Y134.64
G11
G1 F1800 X44.327 Y144.01 E62.41221
G10
G0 F4909.1 X46.66 Y144.01
G11
G1 F1800 X46.66 Y134.64 E63.29768
G10
G0 F4909.1 X48.993 Y134.64
G11
G1 F1800 X48.993 Y144.01 E64.18314
G10
G0 F4909.1 X51.326 Y144.01
G11
G1 F1800 X51.326 Y134.64 E65.06861
G10
G0 F4909.1 X53.659 Y134.64
G11
G1 F1800 X53.659 Y144.01 E65.95407
G10
G0 F4909.1 X55.992 Y144.01
G11
G1 F1800 X55.992 Y134.64 E66.83954
G10
G0 F4909.1 X58.325 Y134.64
G11
G1 F1800 X58.325 Y144.01 E67.725
G10
G0 F4909.1 X60.658 Y144.01
G11
G1 F1800 X60.658 Y134.64 E68.61047
G10
G0 F4909.1 X62.991 Y134.64
G11
G1 F1800 X62.991 Y144.01 E69.49593
G10
G0 F4909.1 X65.324 Y144.01
G11
G1 F1800 X65.324 Y134.64 E70.3814
G10
G0 F4909.1 X67.657 Y134.64
G11
G1 F1800 X67.657 Y144.01 E71.26686
G10
G0 F4909.1 X69.99 Y144.01
G11
G1 F1800 X69.99 Y134.64 E72.15233
G10
G0 F4909.1 X72.323 Y134.64
G11
G1 F1800 X72.323 Y144.01 E73.03779
G10
G0 F4909.1 X74.656 Y144.01
G11
G1 F1800 X74.656 Y134.64 E73.92326
G10
G0 F4909.1 X76.989 Y134.64
G11
G1 F1800 X76.989 Y144.01 E74.80872
G10
G0 F4909.1 X79.322 Y144.01
G11
G1 F1800 X79.322 Y134.64 E75.69419
G10
G0 F4909.1 X81.829 Y137.647
G0 X82.009 Y137.647
G11
G1 F1800 X40.989 Y137.647 E79.57058
G10
G0 F4909.1 X40.989 Y139.98
G11
G1 F1800 X82.009 Y139.98 E83.44697
G10
G0 F4909.1 X83.065 Y139.98
G0 X83.095 Y145.095
G0 X83.025 Y145.025
;TYPE:WALL-INNER
G11
G1 F1800 X83.025 Y77.975 E89.78319
G1 X39.975 Y77.975 E93.85142
G1 X39.975 Y145.025 E100.18764
G1 X83.025 Y145.025 E104.25587
G0 F4909.1 X83.475 Y145.475
G1 F1800 X39.525 Y145.475 E108.40914
G1 X39.525 Y77.525 E114.83042
G1 X83.475 Y77.525 E118.98369
G1 X83.475 Y145.475 E125.40497
G0 F4909.1 X83.8 Y145.8
;TYPE:WALL-OUTER
G1 F1800 X39.2 Y145.8 E129.61967
G1 X39.2 Y77.2 E136.10237
G1 X83.8 Y77.2 E140.31707
G1 X83.8 Y145.8 E146.79977
G0 F4909.1 X83.405 Y145.405
G0 X82.7 Y145.125
G0 X82.7 Y144.7
G1 F1800 X82.7 Y78.3 E153.07457
G1 X40.3 Y78.3 E157.08137
G1 X40.3 Y144.7 E163.35617
G1 X82.7 Y144.7 E167.36297
G0 F4909.1 X82.882 Y145.249
G1 F1800 X83.249 Y145.121 E167.38081
G1 X83.249 Y144.626 E167.39872
G1 X83.249 Y144.131 E167.41663
G1 X83.249 Y143.636 E167.43454
G1 X83.249 Y143.141 E167.45244
G1 X83.249 Y142.646 E167.47035
G1 X83.249 Y142.151 E167.48826
G1 X83.249 Y141.656 E167.50617
G1 X83.249 Y141.161 E167.52408
G1 X83.249 Y140.666 E167.54199
G1 X83.249 Y140.171 E167.5599
G1 X83.249 Y139.676 E167.57781
G1 X83.249 Y139.181 E167.59572
G1 X83.249 Y138.686 E167.61363
G1 X83.249 Y138.191 E167.63154
G1 X83.249 Y137.696 E167.64944
G1 X83.249 Y137.201 E167.66735
G1 X83.249 Y136.706 E167.68526
G1 X83.249 Y136.211 E167.70317
G1 X83.249 Y135.716 E167.72108
G1 X83.249 Y135.221 E167.73899
G1 X83.249 Y134.727 E167.75686
G1 X83.249 Y134.232 E167.77477
G1 X83.249 Y133.737 E167.79268
G1 X83.249 Y133.242 E167.81059
G1 X83.249 Y132.747 E167.8285
G1 X83.249 Y132.252 E167.84641
G1 X83.249 Y131.757 E167.86432
G1 X83.249 Y131.262 E167.88223
G1 X83.249 Y130.767 E167.90014
G1 X83.249 Y130.272 E167.91804
G1 X83.249 Y129.777 E167.93595
G1 X83.249 Y129.282 E167.95386
G1 X83.249 Y128.787 E167.97177
G1 X83.249 Y128.292 E167.98968
G1 X83.249 Y127.797 E168.00759
G1 X83.249 Y127.302 E168.0255
G1 X83.249 Y126.807 E168.04341
G1 X83.249 Y126.312 E168.06132
G1 X83.249 Y125.817 E168.07923
G1 X83.249 Y125.322 E168.09714
G1 X83.249 Y124.827 E168.11504
G1 X83.249 Y124.332 E168.13295
G1 X83.249 Y123.837 E168.15086
G1 X83.249 Y123.342 E168.16877
G1 X83.249 Y122.847 E168.18668
G1 X83.249 Y122.352 E168.20459
G1 X83.249 Y121.857 E168.2225
G1 X83.249 Y121.362 E168.24041
G1 X83.249 Y120.867 E168.25832
G1 X83.249 Y120.372 E168.27623
G1 X83.249 Y119.877 E168.29414
G1 X83.249 Y119.382 E168.31204
G1 X83.249 Y118.887 E168.32995
G1 X83.249 Y118.392 E168.34786
G1 X83.249 Y117.897 E168.36577
G1 X83.249 Y117.402 E168.38368
G1 X83.249 Y116.907 E168.40159
G1 X83.249 Y116.412 E168.4195
G1 X83.249 Y115.917 E168.43741
G1 X83.249 Y115.422 E168.45532
G1 X83.249 Y114.928 E168.47319
G1 X83.249 Y114.433 E168.4911
G1 X83.249 Y113.938 E168.50901
G1 X83.249 Y113.443 E168.52692
G1 X83.249 Y112.948 E168.54483
G1 X83.249 Y112.453 E168.56274
G1 X83.249 Y111.958 E168.58065
G1 X83.249 Y111.463 E168.59855
G1 X83.249 Y110.968 E168.61646
G1 X83.249 Y110.473 E168.63437
G1 X83.249 Y109.978 E168.65228
G1 X83.249 Y109.483 E168.67019
G1 X83.249 Y108.988 E168.6881
G1 X83.249 Y108.493 E168.70601
G1 X83.249 Y107.998 E168.72392
G1 X83.249 Y107.503 E168.74183
G1 X83.249 Y107.008 E168.75974
G1 X83.249 Y106.513 E168.77765
G1 X83.249 Y106.018 E168.79555
G1 X83.249 Y105.523 E168.81346
G1 X83.249 Y105.028 E168.83137
G1 X83.249 Y104.533 E168.84928
G1 X83.249 Y104.038 E168.86719
G1 X83.249 Y103.543 E168.8851
G1 X83.249 Y103.048 E168.90301
G1 X83.249 Y102.553 E168.92092
G1 X83.249 Y102.058 E168.93883
G1 X83.249 Y101.563 E168.95674
G1 X83.249 Y101.068 E168.97465
G1 X83.249 Y100.573 E168.99255
G1 X83.249 Y100.078 E169.01046
G1 X83.249 Y99.583 E169.02837
G1 X83.249 Y99.088 E169.04628
G1 X83.249 Y98.593 E169.06419
G1 X83.249 Y98.098 E169.0821
G1 X83.249 Y97.603 E169.10001
G1 X83.249 Y97.108 E169.11792
G1 X83.249 Y96.613 E169.13583
G1 X83.249 Y96.118 E169.15374
G1 X83.249 Y95.623 E169.17165
G1 X83.249 Y95.129 E169.18952
G1 X83.249 Y94.634 E169.20743
G1 X83.249 Y94.139 E169.22534
G1 X83.249 Y93.644 E169.24325
G1 X83.249 Y93.149 E169.26115
G1 X83.249 Y92.654 E169.27906
G1 X83.249 Y92.159 E169.29697
G1 X83.249 Y91.664 E169.31488
G1 X83.249 Y91.169 E169.33279
G1 X83.249 Y90.674 E169.3507
G1 X83.249 Y90.179 E169.36861
G1 X83.249 Y89.684 E169.38652
G1 X83.249 Y89.189 E169.40443
G1 X83.249 Y88.694 E169.42234
G1 X83.249 Y88.199 E169.44025
G1 X83.249 Y87.704 E169.45815
G1 X83.249 Y87.209 E169.47606
G1 X83.249 Y86.714 E169.49397
G1 X83.249 Y86.219 E169.51188
G1 X83.249 Y85.724 E169.52979
G1 X83.249 Y85.229 E169.5477
G1 X83.249 Y84.734 E169.56561
G1 X83.249 Y84.239 E169.58352
G1 X83.249 Y83.744 E169.60143
G1 X83.249 Y83.249 E169.61934
G1 X83.249 Y82.754 E169.63725
G1 X83.249 Y82.259 E169.65516
G1 X83.249 Y81.764 E169.67306
G1 X83.249 Y81.269 E169.69097
G1 X83.249 Y80.774 E169.70888
G1 X83.249 Y80.279 E169.72679
G1 X83.249 Y79.784 E169.7447
G1 X83.249 Y79.289 E169.76261
G1 X83.249 Y78.794 E169.78052
G1 X83.249 Y78.299 E169.79843
G1 X83.222 Y77.777 E169.81988
G1 X82.699 Y77.749 E169.84137
G1 X82.204 Y77.749 E169.85915
G1 X81.709 Y77.749 E169.87692
G1 X81.214 Y77.749 E169.8947
G1 X80.719 Y77.749 E169.91248
G1 X80.224 Y77.749 E169.93025
G1 X79.729 Y77.749 E169.94803
G1 X79.234 Y77.749 E169.9658
G1 X78.739 Y77.749 E169.98358
G1 X78.244 Y77.749 E170.00135
G1 X77.749 Y77.749 E170.01913
G1 X77.254 Y77.749 E170.0369
G1 X76.759 Y77.749 E170.05468
G1 X76.264 Y77.749 E170.07245
G1 X75.769 Y77.749 E170.09023
G1 X75.274 Y77.749 E170.10801
G1 X74.779 Y77.749 E170.12578
G1 X74.284 Y77.749 E170.14356
G1 X73.789 Y77.749 E170.16133
G1 X73.294 Y77.749 E170.17911
G1 X72.799 Y77.749 E170.19688
G1 X72.304 Y77.749 E170.21466
G1 X71.809 Y77.749 E170.23243
G1 X71.314 Y77.749 E170.25021
G1 X70.819 Y77.749 E170.26798
G1 X70.324 Y77.749 E170.28576
G1 X69.829 Y77.749 E170.30354
G1 X69.334 Y77.749 E170.32131
G1 X68.839 Y77.749 E170.33909
G1 X68.344 Y77.749 E170.35686
G1 X67.849 Y77.749 E170.37464
G1 X67.354 Y77.749 E170.39241
G1 X66.86 Y77.749 E170.41015
G1 X66.365 Y77.749 E170.42793
G1 X65.87 Y77.749 E170.4457
G1 X65.375 Y77.749 E170.46348
G1 X64.88 Y77.749 E170.48125
G1 X64.385 Y77.749 E170.49903
G1 X63.89 Y77.749 E170.51681
G1 X63.395 Y77.749 E170.53458
G1 X62.9 Y77.749 E170.55236
G1 X62.405 Y77.749 E170.57013
G1 X61.91 Y77.749 E170.58791
G1 X61.415 Y77.749 E170.60568
G1 X60.92 Y77.749 E170.62346
G1 X60.425 Y77.749 E170.64123
G1 X59.93 Y77.749 E170.65901
G1 X59.435 Y77.749 E170.67678
G1 X58.94 Y77.749 E170.69456
G1 X58.445 Y77.749 E170.71234
G1 X57.95 Y77.749 E170.73011
G1 X57.455 Y77.749 E170.74789
G1 X56.96 Y77.749 E170.76566
G1 X56.465 Y77.749 E170.78344
G1 X55.97 Y77.749 E170.80121
G1 X55.475 Y77.749 E170.81899
G1 X54.98 Y77.749 E170.83676
G1 X54.485 Y77.749 E170.85454
G1 X53.99 Y77.749 E170.87231
G1 X53.495 Y77.749 E170.89009
G1 X53 Y77.749 E170.90787
G1 X52.505 Y77.749 E170.92564
G1 X52.01 Y77.749 E170.94342
G1 X51.515 Y77.749 E170.96119
G1 X51.02 Y77.749 E170.97897
G1 X50.525 Y77.749 E170.99674
G1 X50.03 Y77.749 E171.01452
G1 X49.535 Y77.749 E171.03229
G1 X49.04 Y77.749 E171.05007
G1 X48.545 Y77.749 E171.06784
G1 X48.05 Y77.749 E171.08562
G1 X47.555 Y77.749 E171.1034
G1 X47.061 Y77.749 E171.12113
G1 X46.566 Y77.749 E171.13891
G1 X46.071 Y77.749 E171.15669
G1 X45.576 Y77.749 E171.17446
G1 X45.081 Y77.749 E171.19224
G1 X44.586 Y77.749 E171.21001
G1 X44.091 Y77.749 E171.22779
G1 X43.596 Y77.749 E171.24556
G1 X43.101 Y77.749 E171.26334
G1 X42.606 Y77.749 E171.28111
G1 X42.111 Y77.749 E171.29889
G1 X41.616 Y77.749 E171.31666
G1 X41.121 Y77.749 E171.33444
G1 X40.626 Y77.749 E171.35222
G1 X40.131 Y77.749 E171.36999
G1 X39.749 Y77.862 E171.38774
G1 X39.749 Y78.357 E171.40565
G1 X39.749 Y78.852 E171.42356
G1 X39.749 Y79.347 E171.44147
G1 X39.749 Y79.842 E171.45937
G1 X39.749 Y80.337 E171.47728
G1 X39.749 Y80.832 E171.49519
G1 X39.749 Y81.327 E171.5131
G1 X39.749 Y81.822 E171.53101
G1 X39.749 Y82.317 E171.54892
G1 X39.749 Y82.812 E171.56683
G1 X39.749 Y83.307 E171.58474
G1 X39.749 Y83.802 E171.60265
G1 X39.749 Y84.297 E171.62056
G1 X39.749 Y84.792 E171.63847
G1 X39.749 Y85.287 E171.65637
G1 X39.749 Y85.782 E171.67428
G1 X39.749 Y86.277 E171.69219
G1 X39.749 Y86.772 E171.7101
G1 X39.749 Y87.267 E171.72801
G1 X39.749 Y87.762 E171.74592
G1 X39.749 Y88.257 E171.76383
G1 X39.749 Y88.751 E171.7817
G1 X39.749 Y89.246 E171.79961
G1 X39.749 Y89.741 E171.81752
G1 X39.749 Y90.236 E171.83543
G1 X39.749 Y90.731 E171.85334
G1 X39.749 Y91.226 E171.87125
G1 X39.749 Y91.721 E171.88916
G1 X39.749 Y92.216 E171.90707
G1 X39.749 Y92.711 E171.92497
G1 X39.749 Y93.206 E171.94288
G1 X39.749 Y93.701 E171.96079
G1 X39.749 Y94.196 E171.9787
G1 X39.749 Y94.691 E171.99661
G1 X39.749 Y95.186 E172.01452
G1 X39.749 Y95.681 E172.03243
G1 X39.749 Y96.176 E172.05034
G1 X39.749 Y96.671 E172.06825
G1 X39.749 Y97.166 E172.08616
G1 X39.749 Y97.661 E172.10407
G1 X39.749 Y98.156 E172.12197
G1 X39.749 Y98.651 E172.13988
G1 X39.749 Y99.146 E172.15779
G1 X39.749 Y99.641 E172.1757
G1 X39.749 Y100.136 E172.19361
G1 X39.749 Y100.631 E172.21152
G1 X39.749 Y101.126 E172.22943
G1 X39.749 Y101.621 E172.24734
G1 X39.749 Y102.116 E172.26525
G1 X39.749 Y102.611 E172.28316
G1 X39.749 Y103.106 E172.30107
G1 X39.749 Y103.601 E172.31897
G1 X39.749 Y104.096 E172.33688
G1 X39.749 Y104.591 E172.35479
G1 X39.749 Y105.086 E172.3727
G1 X39.749 Y105.581 E172.39061
G1 X39.749 Y106.076 E172.40852
G1 X39.749 Y106.571 E172.42643
G1 X39.749 Y107.066 E172.44434
G1 X39.749 Y107.561 E172.46225
G1 X39.749 Y108.055 E172.48012
G1 X39.749 Y108.55 E172.49803
G1 X39.749 Y109.045 E172.51594
G1 X39.749 Y109.54 E172.53385
G1 X39.749 Y110.035 E172.55176
G1 X39.749 Y110.53 E172.56967
G1 X39.749 Y111.025 E172.58758
G1 X39.749 Y111.52 E172.60548
G1 X39.749 Y112.015 E172.62339
G1 X39.749 Y112.51 E172.6413
G1 X39.749 Y113.005 E172.65921
G1 X39.749 Y113.5 E172.67712
G1 X39.749 Y113.995 E172.69503
G1 X39.749 Y114.49 E172.71294
G1 X39.749 Y114.985 E172.73085
G1 X39.749 Y115.48 E172.74876
G1 X39.749 Y115.975 E172.76667
G1 X39.749 Y116.47 E172.78458
G1 X39.749 Y116.965 E172.80248
G1 X39.749 Y117.46 E172.82039
G1 X39.749 Y117.955 E172.8383
G1 X39.749 Y118.45 E172.85621
G1 X39.749 Y118.945 E172.87412
G1 X39.749 Y119.44 E172.89203
G1 X39.749 Y119.935 E172.90994
G1 X39.749 Y120.43 E172.92785
G1 X39.749 Y120.925 E172.94576
G1 X39.749 Y121.42 E172.96367
G1 X39.749 Y121.915 E172.98158
G1 X39.749 Y122.41 E172.99948
G1 X39.749 Y122.905 E173.01739
G1 X39.749 Y123.4 E173.0353
G1 X39.749 Y123.895 E173.05321
G1 X39.749 Y124.39 E173.07112
G1 X39.749 Y124.885 E173.08903
G1 X39.749 Y125.38 E173.10694
G1 X39.749 Y125.875 E173.12485
G1 X39.749 Y126.37 E173.14276
G1 X39.749 Y126.865 E173.16067
G1 X39.749 Y127.36 E173.17858
G1 X39.749 Y127.854 E173.19645
G1 X39.749 Y128.349 E173.21436
G1 X39.749 Y128.844 E173.23227
G1 X39.749 Y129.339 E173.25018
G1 X39.749 Y129.834 E173.26808
G1 X39.749 Y130.329 E173.28599
G1 X39.749 Y130.824 E173.3039
G1 X39.749 Y131.319 E173.32181
G1 X39.749 Y131.814 E173.33972
G1 X39.749 Y132.309 E173.35763
G1 X39.749 Y132.804 E173.37554
G1 X39.749 Y133.299 E173.39345
G1 X39.749 Y133.794 E173.41136
G1 X39.749 Y134.289 E173.42927
G1 X39.749 Y134.784 E173.44718
G1 X39.749 Y135.279 E173.46509
G1 X39.749 Y135.774 E173.48299
G1 X39.749 Y136.269 E173.5009
G1 X39.749 Y136.764 E173.51881
G1 X39.749 Y137.259 E173.53672
G1 X39.749 Y137.754 E173.55463
G1 X39.749 Y138.249 E173.57254
G1 X39.749 Y138.744 E173.59045
G1 X39.749 Y139.239 E173.60836
G1 X39.749 Y139.734 E173.62627
G1 X39.749 Y140.229 E173.64418
G1 X39.749 Y140.724 E173.66209
G1 X39.749 Y141.219 E173.67999
G1 X39.749 Y141.714 E173.6979
G1 X39.749 Y142.209 E173.71581
